;FLAVOR:Marlin
;TIME:3147
;Filament used: 2.88636m
;Layer height: 0.2
;MINX:80
;MINY:78.75
;MINZ:0.2
;MAXX:155
;MAXY:156.25
;MAXZ:21.4
;TARGET_MACHINE.NAME:Creality Ender-3
;Generated with Cura_SteamEngine 5.9.0
M140 S70
M105
M190 S70
M104 S240
M105
M109 S240
M82 ;absolute extrusion mode
; Ender 3 Custom Start G-code
G92 E0 ; Reset Extruder
G28 ; Home all axes
G1 Z2.0 F3000 ; Move Z Axis up little to prevent scratching of Heat Bed
G1 X0.1 Y20 Z0.3 F5000.0 ; Move to start position
G1 X0.1 Y200.0 Z0.3 F1500.0 E15 ; Draw the first line
G1 X0.4 Y200.0 Z0.3 F5000.0 ; Move to side a little
G1 X0.4 Y20 Z0.3 F1500.0 E30 ; Draw the second line
G92 E0 ; Reset Extruder
G1 Z2.0 F3000 ; Move Z Axis up little to prevent scratching of Heat Bed
G1 X5 Y20 Z0.3 F5000.0 ; Move over to prevent blob squish
G92 E0
G92 E0
G1 F2700 E-5
;LAYER_COUNT:107
;LAYER:0
M107
G0 F6000 X92.058 Y156.249 Z0.2
;TYPE:SKIRT
G1 F2700 E0
G1 F900 X91.306 Y156.238 E0.03752
G1 X90.296 Y156.176 E0.08801
G1 X89.346 Y156.035 E0.13592
G1 X88.308 Y155.786 E0.18918
G1 X87.348 Y155.461 E0.23974
G1 X86.469 Y155.076 E0.28762
G1 X85.535 Y154.566 E0.34071
G1 X84.692 Y154.003 E0.39128
G1 X83.983 Y153.436 E0.43657
G1 X83.173 Y152.663 E0.49243
G1 X82.51 Y151.9 E0.54286
G1 X81.943 Y151.123 E0.59085
G1 X81.394 Y150.21 E0.644
G1 X80.972 Y149.347 E0.69193
G1 X80.591 Y148.352 E0.74509
G1 X80.34 Y147.48 E0.79036
G1 X80.125 Y146.36 E0.84725
G1 X80.013 Y145.044 E0.91315
G1 X80 Y144.408 E0.94488
G1 X80.001 Y90.768 E3.62099
G1 X80.012 Y90.05 E3.65682
G1 X80.069 Y89.091 E3.70475
G1 X80.226 Y88.038 E3.75786
G1 X80.436 Y87.155 E3.80314
G1 X80.773 Y86.143 E3.85636
G1 X81.2 Y85.165 E3.9096
G1 X81.688 Y84.278 E3.96011
G1 X82.252 Y83.436 E4.01067
G1 X82.888 Y82.648 E4.06119
G1 X83.515 Y81.992 E4.10646
G1 X84.272 Y81.322 E4.1569
G1 X85.179 Y80.659 E4.21295
G1 X86.047 Y80.139 E4.26343
G1 X86.959 Y79.698 E4.31397
G1 X87.857 Y79.355 E4.36193
G1 X88.83 Y79.077 E4.41241
G1 X89.896 Y78.874 E4.46655
G1 X91.194 Y78.763 E4.53155
G1 X91.83 Y78.75 E4.56328
G1 X98.472 Y78.751 E4.89465
G1 X99.232 Y78.764 E4.93257
G1 X100.219 Y78.826 E4.98191
G1 X100.781 Y78.899 E5.01019
G1 X102.038 Y79.096 E5.07366
G1 X104.572 Y79.458 E5.20137
G1 X107.021 Y79.736 E5.32434
G1 X109.589 Y79.956 E5.45292
G1 X112.009 Y80.094 E5.57385
G1 X114.569 Y80.167 E5.70162
G1 X117.03 Y80.167 E5.8244
G1 X119.559 Y80.096 E5.95063
G1 X122.054 Y79.956 E6.0753
G1 X124.544 Y79.745 E6.19997
G1 X127.043 Y79.463 E6.32544
G1 X129.572 Y79.103 E6.45288
G1 X130.816 Y78.901 E6.51576
G1 X131.717 Y78.794 E6.56102
G1 X132.295 Y78.763 E6.5899
G1 X132.93 Y78.75 E6.62159
G1 X142.942 Y78.751 E7.12109
G1 X143.694 Y78.762 E7.15861
G1 X144.704 Y78.824 E7.2091
G1 X145.654 Y78.965 E7.25701
G1 X146.692 Y79.214 E7.31027
G1 X147.652 Y79.539 E7.36083
G1 X148.531 Y79.924 E7.40871
G1 X149.465 Y80.434 E7.4618
G1 X150.308 Y80.997 E7.51237
G1 X151.017 Y81.564 E7.55766
G1 X151.827 Y82.337 E7.61352
G1 X152.49 Y83.1 E7.66395
G1 X153.057 Y83.877 E7.71194
G1 X153.606 Y84.79 E7.76509
G1 X154.028 Y85.653 E7.81302
G1 X154.409 Y86.648 E7.86618
G1 X154.66 Y87.52 E7.91145
G1 X154.875 Y88.638 E7.96825
G1 X154.987 Y89.944 E8.03364
G1 X155 Y90.58 E8.06538
G1 X154.999 Y144.157 E10.73835
G1 X154.988 Y144.938 E10.77731
G1 X154.927 Y145.949 E10.82784
G1 X154.796 Y146.847 E10.87312
G1 X154.553 Y147.883 E10.92621
G1 X154.215 Y148.895 E10.97944
G1 X153.854 Y149.728 E11.02473
G1 X153.319 Y150.71 E11.08052
G1 X152.755 Y151.554 E11.13117
G1 X152.154 Y152.303 E11.17908
G1 X151.454 Y153.036 E11.22964
G1 X150.654 Y153.737 E11.28271
G1 X149.922 Y154.274 E11.328
G1 X148.965 Y154.853 E11.38381
G1 X148.053 Y155.297 E11.43441
G1 X147.207 Y155.623 E11.47964
G1 X146.13 Y155.933 E11.53556
G1 X145.117 Y156.124 E11.58699
G1 X143.806 Y156.237 E11.65264
G1 X143.17 Y156.25 E11.68437
G1 X92.058 Y156.249 E14.23436
G0 F6000 X92.066 Y155.649
G1 F900 X91.342 Y155.639 E14.27048
G1 X90.383 Y155.582 E14.31841
G1 X89.485 Y155.451 E14.36369
G1 X88.499 Y155.217 E14.41425
G1 X87.589 Y154.911 E14.46215
G1 X86.71 Y154.526 E14.51002
G1 X85.867 Y154.066 E14.55793
G1 X85.067 Y153.534 E14.60586
G1 X84.358 Y152.967 E14.65116
G1 X83.625 Y152.268 E14.70169
G1 X82.994 Y151.545 E14.74956
G1 X82.457 Y150.813 E14.79486
G1 X81.933 Y149.946 E14.8454
G1 X81.511 Y149.083 E14.89333
G1 X81.168 Y148.186 E14.94124
G1 X80.917 Y147.314 E14.98651
G1 X80.723 Y146.309 E15.03757
G1 X80.613 Y145.032 E15.10152
G1 X80.6 Y144.408 E15.13266
G1 X80.601 Y90.777 E17.80832
G1 X80.611 Y90.086 E17.8428
G1 X80.668 Y89.127 E17.89073
G1 X80.81 Y88.177 E17.93865
G1 X81.02 Y87.294 E17.98393
G1 X81.323 Y86.382 E18.03187
G1 X81.726 Y85.453 E18.0824
G1 X82.187 Y84.611 E18.13029
G1 X82.72 Y83.812 E18.1782
G1 X83.322 Y83.063 E18.22615
G1 X83.949 Y82.407 E18.27142
G1 X84.669 Y81.772 E18.31931
G1 X85.488 Y81.173 E18.36994
G1 X86.31 Y80.679 E18.41778
G1 X87.173 Y80.259 E18.46567
G1 X88.071 Y79.916 E18.51362
G1 X88.944 Y79.666 E18.55893
G1 X89.948 Y79.472 E18.60995
G1 X91.207 Y79.363 E18.67299
G1 X91.83 Y79.35 E18.70408
G1 X98.462 Y79.351 E19.03495
G1 X99.195 Y79.363 E19.07153
G1 X100.142 Y79.421 E19.11886
G1 X100.688 Y79.492 E19.14633
G1 X101.945 Y79.689 E19.20981
G1 X104.489 Y80.052 E19.33801
G1 X106.97 Y80.334 E19.46259
G1 X109.539 Y80.554 E19.59123
G1 X111.992 Y80.694 E19.71381
G1 X114.552 Y80.767 E19.84158
G1 X117.047 Y80.767 E19.96605
G1 X119.576 Y80.696 E20.09227
G1 X122.103 Y80.554 E20.21855
G1 X124.595 Y80.343 E20.34332
G1 X127.129 Y80.057 E20.47054
G1 X129.657 Y79.697 E20.59794
G1 X130.887 Y79.497 E20.66011
G1 X131.788 Y79.39 E20.70537
G1 X132.308 Y79.363 E20.73135
G1 X132.93 Y79.35 E20.76239
G1 X142.934 Y79.351 E21.26149
G1 X143.658 Y79.361 E21.29762
G1 X144.617 Y79.418 E21.34555
G1 X145.515 Y79.549 E21.39082
G1 X146.501 Y79.783 E21.44138
G1 X147.411 Y80.089 E21.48928
G1 X148.29 Y80.474 E21.53715
G1 X149.133 Y80.934 E21.58506
G1 X149.933 Y81.466 E21.633
G1 X150.642 Y82.033 E21.67829
G1 X151.375 Y82.732 E21.72882
G1 X152.006 Y83.455 E21.7767
G1 X152.543 Y84.187 E21.82199
G1 X153.067 Y85.054 E21.87253
G1 X153.489 Y85.917 E21.92046
G1 X153.832 Y86.814 E21.96837
G1 X154.083 Y87.686 E22.01364
G1 X154.277 Y88.69 E22.06466
G1 X154.387 Y89.957 E22.1281
G1 X154.4 Y90.58 E22.15919
G1 X154.399 Y144.149 E24.83176
G1 X154.389 Y144.903 E24.86938
G1 X154.333 Y145.862 E24.91731
G1 X154.202 Y146.76 E24.96258
G1 X153.983 Y147.694 E25.01044
G1 X153.664 Y148.656 E25.06101
G1 X153.303 Y149.489 E25.1063
G1 X152.819 Y150.378 E25.1568
G1 X152.287 Y151.178 E25.20473
G1 X151.686 Y151.927 E25.25264
G1 X151.021 Y152.621 E25.3006
G1 X150.299 Y153.253 E25.34847
G1 X149.567 Y153.79 E25.39376
G1 X148.701 Y154.314 E25.44426
G1 X147.837 Y154.737 E25.49225
G1 X146.991 Y155.063 E25.53749
G1 X146.017 Y155.344 E25.58806
G1 X145.065 Y155.526 E25.63642
G1 X143.793 Y155.637 E25.70012
G1 X143.17 Y155.65 E25.73121
G1 X92.066 Y155.649 E28.2808
G0 F6000 X92.074 Y155.049
G1 F900 X91.376 Y155.04 E28.31562
G1 X90.47 Y154.988 E28.3609
G1 X89.572 Y154.857 E28.40617
G1 X88.689 Y154.648 E28.45144
G1 X87.828 Y154.361 E28.49672
G1 X86.996 Y153.999 E28.54199
G1 X86.198 Y153.566 E28.58728
G1 X85.442 Y153.065 E28.63253
G1 X84.733 Y152.498 E28.67782
G1 X84.076 Y151.872 E28.7231
G1 X83.478 Y151.19 E28.76835
G1 X82.941 Y150.458 E28.81364
G1 X82.471 Y149.681 E28.85895
G1 X82.071 Y148.867 E28.9042
G1 X81.745 Y148.02 E28.94948
G1 X81.494 Y147.148 E28.99475
G1 X81.321 Y146.257 E29.04003
G1 X81.213 Y145.019 E29.10203
G1 X81.2 Y144.408 E29.13252
G1 X81.201 Y90.785 E31.80778
G1 X81.21 Y90.12 E31.84096
G1 X81.262 Y89.214 E31.88624
G1 X81.394 Y88.316 E31.93152
G1 X81.604 Y87.433 E31.9768
G1 X81.892 Y86.572 E32.02209
G1 X82.253 Y85.74 E32.06734
G1 X82.687 Y84.943 E32.11262
G1 X83.189 Y84.187 E32.15789
G1 X83.756 Y83.478 E32.20318
G1 X84.383 Y82.822 E32.24846
G1 X85.065 Y82.223 E32.29374
G1 X85.798 Y81.687 E32.33905
G1 X86.574 Y81.218 E32.38428
G1 X87.389 Y80.819 E32.42956
G1 X88.236 Y80.493 E32.47483
G1 X89.109 Y80.243 E32.52014
G1 X90 Y80.07 E32.56542
G1 X91.22 Y79.963 E32.62652
G1 X91.83 Y79.95 E32.65696
G1 X98.453 Y79.951 E32.98738
G1 X99.159 Y79.962 E33.02261
G1 X100.065 Y80.016 E33.06789
G1 X100.595 Y80.085 E33.09456
G1 X101.852 Y80.282 E33.15803
G1 X104.406 Y80.646 E33.28674
G1 X106.919 Y80.932 E33.41292
G1 X109.489 Y81.152 E33.54161
G1 X111.975 Y81.294 E33.66584
G1 X114.535 Y81.367 E33.79361
G1 X117.064 Y81.367 E33.91978
G1 X119.593 Y81.296 E34.04601
G1 X122.152 Y81.152 E34.17388
G1 X124.646 Y80.941 E34.29875
G1 X127.21 Y80.651 E34.42748
G1 X129.741 Y80.291 E34.55502
G1 X130.958 Y80.093 E34.61654
G1 X131.859 Y79.986 E34.66181
G1 X132.321 Y79.963 E34.68488
G1 X132.93 Y79.95 E34.71527
G1 X142.926 Y79.951 E35.21398
G1 X143.624 Y79.96 E35.2488
G1 X144.53 Y80.012 E35.29408
G1 X145.428 Y80.143 E35.33935
G1 X146.311 Y80.352 E35.38462
G1 X147.172 Y80.639 E35.4299
G1 X148.004 Y81.001 E35.47517
G1 X148.802 Y81.434 E35.52047
G1 X149.558 Y81.935 E35.56571
G1 X150.267 Y82.502 E35.611
G1 X150.924 Y83.128 E35.65628
G1 X151.522 Y83.81 E35.70153
G1 X152.059 Y84.542 E35.74682
G1 X152.529 Y85.319 E35.79213
G1 X152.929 Y86.133 E35.83738
G1 X153.255 Y86.98 E35.88266
G1 X153.506 Y87.852 E35.92793
G1 X153.679 Y88.743 E35.97321
G1 X153.787 Y89.97 E36.03466
G1 X153.8 Y90.58 E36.0651
G1 X153.799 Y144.142 E38.73732
G1 X153.79 Y144.869 E38.77359
G1 X153.739 Y145.775 E38.81887
G1 X153.608 Y146.673 E38.86414
G1 X153.399 Y147.556 E38.90941
G1 X153.113 Y148.417 E38.95468
G1 X152.752 Y149.25 E38.99997
G1 X152.319 Y150.047 E39.04522
G1 X151.818 Y150.804 E39.09051
G1 X151.252 Y151.513 E39.13577
G1 X150.625 Y152.17 E39.18108
G1 X149.944 Y152.769 E39.22633
G1 X149.212 Y153.306 E39.27162
G1 X148.436 Y153.776 E39.31688
G1 X147.621 Y154.177 E39.3622
G1 X146.775 Y154.503 E39.40743
G1 X145.903 Y154.755 E39.45271
G1 X145.012 Y154.928 E39.498
G1 X143.78 Y155.037 E39.5597
G1 X143.17 Y155.05 E39.59014
G1 X92.074 Y155.049 E42.13933
G1 F2700 E37.13933
;MESH:MotorDriverMount.stl
G0 F6000 X92.124 Y145.415
G0 X92.124 Y144.126
G0 X97.69 Y143.248
G0 X97.944 Y143.248
;TYPE:WALL-INNER
G1 F2700 E42.13933
G1 F900 X97.615 Y142.826 E42.16603
G1 X97.5 Y142.248 E42.19543
G1 X97.5 Y137.725 E42.42108
G1 X97.248 Y137.857 E42.43528
G1 X96.859 Y138.009 E42.45611
G1 X96.427 Y138.108 E42.47822
G1 X96.011 Y138.14 E42.49904
G1 X95.637 Y138.122 E42.51772
G1 X95.158 Y138.016 E42.54219
G1 X94.786 Y137.878 E42.56199
G1 X94.514 Y137.734 E42.57734
G1 X94.198 Y137.511 E42.59664
G1 X93.886 Y137.223 E42.61782
G1 X93.598 Y136.89 E42.63979
G1 F851.7 X93.208 Y136.137 E42.68449
G1 F756.3 X93.077 Y135.836 E42.70398
G1 X93.035 Y136.17 E42.72397
G1 F851.7 X93.001 Y136.588 E42.74608
G1 F900 X93 Y143.248 E43.07834
G1 X97.944 Y143.248 E43.325
G0 F6000 X97.69 Y143.248
G0 X97.222 Y138.165
G0 X94.706 Y138.021
G0 X93.077 Y135.836
G1 F738.7 X93.052 Y135.144 E43.36709
G1 F747.9 X93.07 Y134.81 E43.38717
G1 F736.7 X93.164 Y134.407 E43.41239
G1 F745.9 X93.321 Y133.995 E43.43894
G1 F749 X93.473 Y133.715 E43.45804
G1 X93.642 Y133.465 E43.47613
G1 X93.813 Y133.258 E43.49222
G1 X94.062 Y133.016 E43.51304
G1 X94.334 Y132.809 E43.53353
G1 X93.248 Y132.808 E43.59864
G1 X93.06 Y132.746 E43.61051
G1 F739.7 X93.07 Y134.81 E43.73579
G0 F6000 X92.78 Y132.53
G0 X92.38 Y131.4
G1 F973 X92.374 Y118.248 E44.34274
G0 F6000 X92.612 Y117.612
G0 X97.5 Y116.748
G1 F900 X97.5 Y97.725 E45.2918
G1 X97.248 Y97.857 E45.30599
G1 X96.859 Y98.009 E45.32683
G1 X96.427 Y98.108 E45.34894
G1 X96.011 Y98.14 E45.36976
G1 X95.637 Y98.122 E45.38844
G1 X95.158 Y98.016 E45.41291
G1 X94.786 Y97.878 E45.43271
G1 X94.514 Y97.734 E45.44806
G1 X94.198 Y97.511 E45.46736
G1 X93.886 Y97.223 E45.48854
G1 X93.598 Y96.89 E45.51051
G1 F851.7 X93.208 Y96.137 E45.55521
G1 F756.3 X93.077 Y95.836 E45.5747
G1 X93.035 Y96.17 E45.59468
G1 F851.7 X93.001 Y96.588 E45.61679
G1 F900 X93 Y116.83 E46.62667
G1 X93.248 Y116.748 E46.6397
G1 X97.5 Y116.748 E46.85184
G0 F6000 X92.612 Y117.612
G0 X92.612 Y131.888
G0 X97.569 Y132.756
G1 F876.6 X97.53 Y132.689 E46.85581
G1 X97.453 Y132.689 E46.85975
G1 X97.415 Y132.756 E46.8637
G1 X97.454 Y132.823 E46.86767
G1 X97.531 Y132.823 E46.87161
G1 X97.569 Y132.756 E46.87556
G1 F2700 E41.87556
G0 F6000 X96.196 Y132.595
G0 X95.404 Y132.654
G0 X94.679 Y132.941
G0 X94.151 Y133.342
G0 X93.798 Y133.764
G0 X93.514 Y134.306
G0 X93.345 Y135.054
G0 X93.404 Y135.846
G0 X93.678 Y136.539
G0 X93.952 Y136.945
G0 X94.487 Y137.437
G0 X95.056 Y137.736
G0 X95.804 Y137.905
G0 X96.596 Y137.846
G0 X97.289 Y137.572
G0 X97.762 Y143.488
G0 X133.838 Y143.488
G0 X133.952 Y136.945
G0 X134.487 Y137.437
G0 X135.056 Y137.736
G0 X135.804 Y137.905
G0 X136.596 Y137.846
G0 X137.289 Y137.572
G0 X137.695 Y137.298
G0 X138.187 Y136.763
G0 X138.486 Y136.194
G0 X138.655 Y135.446
G0 X138.596 Y134.654
G0 X138.306 Y133.923
G0 X137.88 Y133.373
G0 X137.48 Y133.045
G0 X136.944 Y132.764
G0 X136.196 Y132.595
G0 X135.404 Y132.654
G0 X134.679 Y132.941
G0 X134.251 Y133.266
G0 X133.833 Y133.729
G0 X133.614 Y134.928
G1 F2700 E46.87556
G1 F662.6 X133.602 Y135.144 E46.89022
G1 F653.8 X133.623 Y135.74 E46.93118
G0 F6000 X133.839 Y136.76
G0 X134.487 Y137.437
G0 X135.056 Y137.736
G0 X135.804 Y137.905
G0 X136.596 Y137.846
G0 X137.289 Y137.572
G0 X137.695 Y137.298
G0 X138.187 Y136.763
G0 X138.486 Y136.194
G0 X138.655 Y135.446
G0 X138.596 Y134.654
G0 X138.306 Y133.923
G0 X137.88 Y133.373
G0 X137.48 Y133.045
G0 X136.944 Y132.764
G0 X136.338 Y132.627
G0 X134.424 Y132.659
G1 F541.1 X134.362 Y132.552 E46.94144
G1 X134.238 Y132.552 E46.95173
G1 X134.176 Y132.659 E46.96199
G1 X134.238 Y132.766 E46.97225
G1 X134.362 Y132.766 E46.98254
G1 X134.424 Y132.659 E46.9928
G0 F6000 X135.455 Y132.56
G0 X135.455 Y132.211
G1 F771.4 X135.205 Y132.181 E47.00746
G1 F828.2 X134.795 Y132.047 E47.03085
G1 F857.1 X134.455 Y131.702 E47.05622
G1 F796.5 X134.286 Y131.399 E47.07578
G1 F743.8 X134.286 Y99.248 E49.01664
G1 F815.7 X134.467 Y98.8 E49.04324
G1 F900 X134.745 Y98.501 E49.06361
G1 X134.974 Y98.391 E49.07628
G1 F866.8 X135.248 Y98.324 E49.0909
G1 F791.8 X135.606 Y98.289 E49.11129
G1 F760.6 X135.896 Y98.297 E49.12842
G1 F754.2 X136.541 Y98.285 E49.16683
G1 F813.3 X137.227 Y98.348 E49.20486
G1 F900 X139.309 Y98.349 E49.30873
G1 X139.573 Y98.408 E49.32223
G1 X139.773 Y98.516 E49.33357
G1 X139.96 Y98.695 E49.34648
G1 X140.097 Y98.948 E49.36084
G1 X140.148 Y99.248 E49.37602
G1 X140.148 Y131.354 E50.9778
G1 X140.098 Y131.547 E50.98774
G1 X139.961 Y131.799 E51.00205
G1 X139.775 Y131.979 E51.01497
G1 X139.576 Y132.087 E51.02626
G1 X139.32 Y132.146 E51.03937
G1 X137.169 Y132.148 E51.14668
G1 F873.8 X136.811 Y132.165 E51.1651
G1 F796.5 X136.397 Y132.207 E51.18856
G1 F760.6 X136.104 Y132.199 E51.20586
G1 F754.2 X135.455 Y132.211 E51.24451
G0 F6000 X135.455 Y132.56
G0 X136.196 Y132.595
G0 X136.944 Y132.764
G0 X137.48 Y133.045
G0 X137.88 Y133.373
G0 X138.306 Y133.923
G0 X138.596 Y134.654
G0 X138.655 Y135.446
G0 X138.486 Y136.194
G0 X138.187 Y136.763
G0 X137.695 Y137.298
G0 X137.289 Y137.572
G0 X136.596 Y137.846
G0 X134.38 Y137.979
G0 X133.91 Y143.248
G0 X133.656 Y143.248
G1 F900 X142 Y143.248 E51.66079
G1 X142 Y91.748 E54.23014
G1 F894 X136.924 Y91.751 E54.48507
G1 F876.6 X136.509 Y91.76 E54.50633
G1 F879.5 X136.104 Y91.749 E54.52701
G1 F875.2 X135.368 Y91.764 E54.56478
G1 F819.4 X134.98 Y91.791 E54.58609
G1 F744.8 X134.564 Y91.835 E54.61131
G1 F706.8 X134.182 Y91.835 E54.63558
G1 X134.182 Y92.893 E54.70279
G1 X134.432 Y92.714 E54.72232
G1 X134.706 Y92.572 E54.74193
G1 F744.8 X135.108 Y92.452 E54.76722
G1 F819.4 X135.422 Y92.39 E54.78476
G1 F875.2 X136.104 Y92.351 E54.8198
G1 F879.5 X136.44 Y92.378 E54.83701
G1 F876.6 X136.842 Y92.478 E54.85823
G1 F894 X137.202 Y92.613 E54.87754
G1 F900 X137.479 Y92.758 E54.89314
G1 X137.802 Y92.985 E54.91284
G1 X138.114 Y93.273 E54.93402
G1 X138.407 Y93.616 E54.95653
G1 X138.602 Y93.989 E54.97752
G1 X138.758 Y94.381 E54.99857
G1 X138.862 Y94.835 E55.02181
G1 X138.892 Y95.352 E55.04765
G1 X138.87 Y95.611 E55.06061
G1 X138.745 Y96.197 E55.09051
G1 X138.63 Y96.462 E55.10492
G1 X138.487 Y96.735 E55.1203
G1 X138.263 Y97.05 E55.13958
G1 X137.975 Y97.362 E55.16076
G1 X137.711 Y97.588 E55.1781
G1 X137.455 Y97.748 E55.19316
G1 X139.349 Y97.751 E55.28765
G1 X139.79 Y97.849 E55.31019
